X: 130
T: 130. Mein Seele erhebet den Herrn
N: Derived from chor130.krn
C: Johann Sebastian Bach
%%abc-version 2.0
%%abcx-abcm2ps-target-version 5.9.1 (29 Sep 2008)
%%abc-creator hum2abc beta
%%abcx-conversion-date 2019/03/11 17:28:18
%%abc-edited-by Craig Stuart Sapp
%%humdrum-veritas 3521675919
%%humdrum-veritas-data 3920596899
%%
%%barnumbers 0
L: 1/4
M: C
%%staves [1 2 3 4]
V: 1 clef=treble
V: 2 clef=treble
V: 3 clef=treble-8
V: 4 clef=bass
K: G
[V:1] B2d2 | 
[V:2] E2D2 | 
[V:3] G2A2 | 
[V:4] E,2F,2 | 
[V:1] BBBB | 
[V:2] D^DEF | 
[V:3] BAGF | 
[V:4] G,F,E,^D, | 
[V:1] c2B2 | 
[V:2] E=D2D | 
[V:3] GA2G | 
[V:4] E,F,G,E, | 
[V:1] A2A2 | 
[V:2] E2D2 | 
[V:3] G2F2 | 
[V:4] C,A,,D,2 | 
[V:1] !fermata!G4 | 
[V:2] !fermata!D4 | 
[V:3] !fermata!B4 | 
[V:4] !fermata!G,,4 | 
[V:1] B2d2 | 
[V:2] D4 | 
[V:3] G4 | 
[V:4] G,2B,,2 | 
[V:1] A8A8 | 
[V:2] D8D8 | 
[V:3] F8F8 | 
[V:4] D,8D,8 | 
[V:1] E2 | 
[V:2] E2 | 
[V:3] A2 | 
[V:4] C,2 | 
[V:1] G2F2 | 
[V:2] E2^D2 | 
[V:3] B3A | 
[V:4] B,,A,,B,,2 | 
[V:1] !fermata!E4 |]  
[V:2] !fermata!B,4 |]  
[V:3] !fermata!G4 |]  
[V:4] !fermata!E,,4 |]  



